X: 332
T: FORGET NOT THE ANGELS
T: Na dearmad na aingealaidhe
B: O'Neill's 332
M: 3/4
L: 1/8
Z: 1999 by John Chambers <jc@trillian.mit.edu>
N: "Slow and tenderly"
K:Em
GA \
| B2 B2 (AG) | df e>d BA | G2 (EG F>E) | E4 B^d \
| e2 (egfe) | e2 d2 (ef) | g2 (fedB) | (^d2 e2) (Bd) |
| e2 (egfe) | (e2 d)z (ef) | g2 (fedc) | (^d2 e2) (GA) \
| B2- B>A GE | (D>de>)(dBA) | G2 EG (F>E) | E2- Ez ||


